X: 77
T:Off She Goes
T:Humpty Dumpty
R:jig
C:Trad
M:6/8
L:1/8
Q:3/8=120
K:D
|:F2A G2B|ABc d3|F2A G2B|AFD E3|
F2A G2B|ABc d3|f2d g2f|edc d3:|
|:faf def|gbg efg|faf def|ecA A3|
faf def|gbg efg|fed g2f|edc d3:|
